Yaru++/apps/scalable/gnome-nettool.svg

<svg height="256" width="256" xmlns="http://www.w3.org/2000/svg" xmlns:xlink="http://www.w3.org/1999/xlink">
  <linearGradient id="linearGradient982" gradientUnits="userSpaceOnUse" x1="152" x2="152" y1="124" y2="236">
    <stop offset="0"/>
    <stop offset="1" stop-opacity="0"/>
  </linearGradient>
  <clipPath id="clipPath999">
    <path d="m152 68c-48.60106 0-88 39.39894-88 88s39.39894 88 88 88 88-39.39894 88-88-39.39894-88-88-88z"/>
  </clipPath>
  <filter id="filter1003" color-interpolation-filters="sRGB" height="1.12" width="1.12" x="-.06" y="-.06">
    <feGaussianBlur stdDeviation="4.4"/>
  </filter>
  <linearGradient id="linearGradient11065" gradientUnits="userSpaceOnUse" x1="-176.2" x2="-80.2" y1="-236.69602" y2="-12.69602">
    <stop offset="0" stop-color="#e6e6e6"/>
    <stop offset="1" stop-color="#d3d3d3"/>
  </linearGradient>
  <filter id="filter11191" color-interpolation-filters="sRGB" height="1.024" width="1.024" x="-.01" y="-.01">
    <feGaussianBlur stdDeviation="1.12"/>
  </filter>
  <filter id="filter11210" color-interpolation-filters="sRGB" height="1.096" width="1.096" x="-.05" y="-.05">
    <feGaussianBlur stdDeviation="4.48"/>
  </filter>
  <circle cx="128.2" cy="128.69601" filter="url(#filter11210)" opacity=".1" r="112"/>
  <circle cx="128.2" cy="126.69601" filter="url(#filter11191)" opacity=".1" r="112"/>
  <circle cx="128.2" cy="124.69601" opacity=".1" r="114"/>
  <circle cx="-128.2" cy="-124.69601" fill="url(#linearGradient11065)" r="112" transform="scale(-1)"/>
  <path d="m16.200002 134.39193a112.5345 112.53445 0 0 0 111.977528 102.30409 112.5345 112.53445 0 0 0 112.02247-102.30409z" fill="#fff" opacity=".25"/>
  <path d="m128.2 38.696017c-48.667747 0-87.999997 39.335305-87.999997 88.002873 0 48.66803 39.33225 88.00023 87.999997 88.00023 48.66775 0 88-39.3322 88-88.00023 0-48.667568-39.33225-88.002873-88-88.002873z" fill="#4d4d4d" stroke-width="11.733334"/>
  <path d="m40.200002 124.69602a88 88 0 0 1 87.999998-88.000006 88 88 0 0 1 88 88.000006z" opacity=".05"/>
  <path clip-path="url(#clipPath999)" d="m152 70c-48.60106 0-88 39.39894-88 88s39.39894 88 88 88 88-39.39894 88-88-39.39894-88-88-88z" fill="none" filter="url(#filter1003)" opacity=".2" stroke="url(#linearGradient982)" stroke-linejoin="round" stroke-width="10" transform="translate(-23.799997 -31.303983)"/>
  <path d="m128.2 12.696014a112 112 0 0 0 -111.999998 112.000006 112 112 0 0 0 .04102 1.16992 112 112 0 0 1 111.958978-111.169926 112 112 0 0 1 111.95898 110.830086 112 112 0 0 0 .041-.83008 112 112 0 0 0 -112-112.000006z" fill="#fff" opacity=".3"/>
  <path d="m128.2 236.69602a112 112 0 0 1 -111.999998-112 112 112 0 0 1 .04102-1.16992 112 112 0 0 0 111.958978 111.16992 112 112 0 0 0 111.95898-110.83008 112 112 0 0 1 .041.83008 112 112 0 0 1 -112 112z" opacity=".2"/>
  <path d="m128.2 38.696017c-48.523028 0-87.999998 39.47654-87.999998 88.000003 0 48.52302 39.47697 88 87.999998 88 48.52302 0 88-39.47698 88-88 0-48.523463-39.47698-88.000003-88-88.000003zm44.68862 40.40994c-11.24179-11.06408-25.67848-18.10664-43.62023-18.79056v-17.9819c23.06796.46135 41.97599 9.30749 56.74462 23.46609zm-43.62067 6.32959c10.67962.43146 19.15539 4.4581 26.09884 10.82699l-26.09884 26.097993zm-3.84465 40.192513h-38.483768c.91887-21.35922 18.833288-39.273643 38.483768-40.192513zm0 3.84466v38.48377c-19.65048-.91888-37.564898-18.83329-38.483768-38.48377zm3.84465 0h40.19252c-.91888 19.65048-18.83329 37.56489-40.19252 38.48377zm29.0007-35.748503c-7.59576-7.01693-16.61234-11.44385-29.0007-11.88043v-17.93663c15.80583.68136 30.30917 7.32322 40.89908 17.7367zm-32.84535-11.88043c-21.35922.92357-41.152388 20.716313-42.075538 43.784273h-17.98232c.47972-33.747583 28.01902-61.286883 60.057858-61.766173zm-42.075538 47.628933c.92315 21.35922 20.716318 41.15154 42.075538 42.07554v16.18644c-32.038838-.47161-58.608008-26.22314-60.011728-58.26198zm45.920188 42.07554c23.06797-.924 42.86028-20.71632 43.78428-42.07554h16.14031c-1.37852 30.3301-27.88574 56.83775-59.92459 58.21584zm-3.84465-129.214763v17.93619c-34.174758.48059-63.169048 29.47487-63.649638 65.358373h-17.93576c.94963-46.563113 36.73103-82.344933 81.585398-83.294563zm-81.585398 87.139223h17.9819c1.40758 34.17476 29.42917 61.3817 63.603928 61.85375v19.73207c-44.854798-.95048-80.636198-36.73145-81.585828-81.58582zm85.430048 81.58582v-19.77821c33.74759-1.38365 62.13271-29.76921 63.51679-61.80804h19.77821c-.95091 44.8548-36.73188 80.63577-83.295 81.58625z" fill="#4aaee8" stroke-width=".658003"/>
</svg>

<?xml version="1.0" encoding="UTF-8" standalone="no"?>
<svg
   xmlns:osb="http://www.openswatchbook.org/uri/2009/osb"
   xmlns:dc="http://purl.org/dc/elements/1.1/"
   xmlns:cc="http://creativecommons.org/ns#"
   xmlns:rdf="http://www.w3.org/1999/02/22-rdf-syntax-ns#"
   xmlns:svg="http://www.w3.org/2000/svg"
   xmlns="http://www.w3.org/2000/svg"
   xmlns:xlink="http://www.w3.org/1999/xlink"
   xmlns:sodipodi="http://sodipodi.sourceforge.net/DTD/sodipodi-0.dtd"
   xmlns:inkscape="http://www.inkscape.org/namespaces/inkscape"
   width="256"
   height="256"
   version="1.1"
   id="svg66"
   sodipodi:docname="gnomenettool_104175.svg"
   inkscape:version="0.92.4 (5da689c313, 2019-01-14)">
  <metadata
     id="metadata70">
    <rdf:RDF>
      <cc:Work
         rdf:about="">
        <dc:format>image/svg+xml</dc:format>
        <dc:type
           rdf:resource="http://purl.org/dc/dcmitype/StillImage" />
        <dc:title></dc:title>
      </cc:Work>
    </rdf:RDF>
  </metadata>
  <sodipodi:namedview
     pagecolor="#ffffff"
     bordercolor="#666666"
     borderopacity="1"
     objecttolerance="10"
     gridtolerance="10"
     guidetolerance="10"
     inkscape:pageopacity="0"
     inkscape:pageshadow="2"
     inkscape:window-width="1920"
     inkscape:window-height="1016"
     id="namedview68"
     showgrid="false"
     inkscape:zoom="3.4174597"
     inkscape:cx="72.155138"
     inkscape:cy="127.75199"
     inkscape:window-x="0"
     inkscape:window-y="27"
     inkscape:window-maximized="1"
     inkscape:current-layer="svg66" />
  <defs
     id="defs34">
    <linearGradient
       id="linearGradient5606"
       osb:paint="solid">
      <stop
         id="stop5608"
         offset="0"
         style="stop-color:#000000" />
    </linearGradient>
    <linearGradient
       id="linearGradient4526"
       osb:paint="solid">
      <stop
         id="stop4528"
         offset="0"
         style="stop-color:#ffffff" />
    </linearGradient>
    <linearGradient
       id="linearGradient3600-4"
       osb:paint="gradient">
      <stop
         id="stop3602-7"
         offset="0"
         style="stop-color:#f4f4f4" />
      <stop
         id="stop3604-6"
         offset="1"
         style="stop-color:#dbdbdb" />
    </linearGradient>
    <linearGradient
       id="linearGradient955"
       x1="200"
       x2="200"
       y1="268"
       y2="44"
       gradientTransform="translate(-23.799997,-31.303983)"
       gradientUnits="userSpaceOnUse"
       xlink:href="#linearGradient945" />
    <linearGradient
       id="linearGradient945">
      <stop
         id="stop943"
         offset="0"
         style="stop-color:#e6e6e6" />
      <stop
         id="stop941"
         offset="1"
         style="stop-color:#d3d3d3" />
    </linearGradient>
    <linearGradient
       id="linearGradient1035"
       x1="152"
       x2="152"
       y1="100"
       y2="212"
       gradientTransform="translate(-23.799997,-31.303983)"
       gradientUnits="userSpaceOnUse"
       xlink:href="#linearGradient1033" />
    <linearGradient
       id="linearGradient1033">
      <stop
         style="stop-color:#000000;stop-opacity:0"
         id="stop1029"
         offset="0" />
      <stop
         id="stop1037"
         offset=".5"
         style="stop-color:#000000" />
      <stop
         style="stop-color:#000000;stop-opacity:0"
         id="stop1031"
         offset="1" />
    </linearGradient>
    <filter
       style="color-interpolation-filters:sRGB"
       id="filter1025"
       width="1.048"
       height="1.048"
       x="-.02"
       y="-.02">
      <feGaussianBlur
         id="feGaussianBlur1027"
         stdDeviation="1.5" />
    </filter>
    <linearGradient
       id="linearGradient982"
       x1="152"
       x2="152"
       y1="124"
       y2="236"
       gradientUnits="userSpaceOnUse"
       xlink:href="#linearGradient980" />
    <linearGradient
       id="linearGradient980">
      <stop
         style="stop-color:#000000"
         id="stop976"
         offset="0" />
      <stop
         style="stop-color:#000000;stop-opacity:0"
         id="stop978"
         offset="1" />
    </linearGradient>
    <clipPath
       id="clipPath999"
       clipPathUnits="userSpaceOnUse">
      <path
         style="fill:#5d5d5d"
         d="m 152,68 c -48.60106,0 -88,39.39894 -88,88 0,48.60106 39.39894,88 88,88 48.60106,0 88,-39.39894 88,-88 0,-48.60106 -39.39894,-88 -88,-88 z"
         id="path24" />
    </clipPath>
    <filter
       style="color-interpolation-filters:sRGB"
       id="filter1003"
       width="1.12"
       height="1.12"
       x="-.06"
       y="-.06">
      <feGaussianBlur
         id="feGaussianBlur1005"
         stdDeviation="4.4" />
    </filter>
    <linearGradient
       id="linearGradient11065"
       x1="104"
       x2="200"
       y1="44"
       y2="268"
       gradientTransform="translate(-280.2,-280.69602)"
       gradientUnits="userSpaceOnUse"
       xlink:href="#linearGradient945" />
    <filter
       style="color-interpolation-filters:sRGB"
       id="filter11191"
       width="1.024"
       height="1.024"
       x="-.01"
       y="-.01">
      <feGaussianBlur
         id="feGaussianBlur11193"
         stdDeviation="1.12" />
    </filter>
    <filter
       style="color-interpolation-filters:sRGB"
       id="filter11210"
       width="1.096"
       height="1.096"
       x="-.05"
       y="-.05">
      <feGaussianBlur
         id="feGaussianBlur11212"
         stdDeviation="4.48" />
    </filter>
  </defs>
  <circle
     style="opacity:0.1;filter:url(#filter11210)"
     cx="128.2"
     cy="128.69601"
     r="112"
     id="circle36" />
  <circle
     style="opacity:0.1;filter:url(#filter11191)"
     cx="128.2"
     cy="126.69601"
     r="112"
     id="circle38" />
  <circle
     style="opacity:0.1"
     cx="128.2"
     cy="124.69601"
     r="114"
     id="circle40" />
  <circle
     style="fill:url(#linearGradient11065)"
     cx="-128.2"
     cy="-124.69601"
     r="112"
     transform="scale(-1)"
     id="circle42" />
  <path
     style="opacity:0.25;fill:#ffffff"
     d="M 16.200002,134.39193 A 112.5345,112.53445 0 0 0 128.17753,236.69602 112.5345,112.53445 0 0 0 240.2,134.39193 Z"
     id="path44"
     inkscape:connector-curvature="0" />
  <path
     inkscape:connector-curvature="0"
     d="m 128.2,38.696017 c -48.667747,0 -87.999997,39.335305 -87.999997,88.002873 0,48.66803 39.33225,88.00023 87.999997,88.00023 48.66775,0 88,-39.3322 88,-88.00023 0,-48.667568 -39.33225,-88.002873 -88,-88.002873 z"
     style="fill:#4d4d4d;stroke-width:11.73333359"
     id="path908"
     sodipodi:nodetypes="sssss" />
  <path
     style="opacity:0.05"
     d="M 40.200002,124.69602 A 88,88 0 0 1 128.2,36.696014 a 88,88 0 0 1 88,88.000006 z"
     id="path48"
     inkscape:connector-curvature="0" />
  <path
     style="opacity:0.2;fill:none;stroke:url(#linearGradient982);stroke-width:10;stroke-linejoin:round;filter:url(#filter1003)"
     d="m 152,70 c -48.60106,0 -88,39.39894 -88,88 0,48.60106 39.39894,88 88,88 48.60106,0 88,-39.39894 88,-88 0,-48.60106 -39.39894,-88 -88,-88 z"
     clip-path="url(#clipPath999)"
     transform="translate(-23.799997,-31.303983)"
     id="path50"
     inkscape:connector-curvature="0" />
  <path
     style="opacity:0.3;fill:#ffffff"
     d="M 128.2,12.696014 A 112,112 0 0 0 16.200002,124.69602 112,112 0 0 0 16.241022,125.86594 112,112 0 0 1 128.2,14.696014 112,112 0 0 1 240.15898,125.5261 a 112,112 0 0 0 0.041,-0.83008 112,112 0 0 0 -112,-112.000006 z"
     id="path62"
     inkscape:connector-curvature="0" />
  <path
     style="opacity:0.2"
     d="m 128.2,236.69602 a 112,112 0 0 1 -111.999998,-112 112,112 0 0 1 0.04102,-1.16992 A 112,112 0 0 0 128.2,234.69602 112,112 0 0 0 240.15898,123.86594 a 112,112 0 0 1 0.041,0.83008 112,112 0 0 1 -112,112 z"
     id="path64"
     inkscape:connector-curvature="0" />
  <path
     inkscape:connector-curvature="0"
     d="m 128.2,38.696017 c -48.523028,0 -87.999998,39.47654 -87.999998,88.000003 0,48.52302 39.47697,88 87.999998,88 48.52302,0 88,-39.47698 88,-88 0,-48.523463 -39.47698,-88.000003 -88,-88.000003 z m 44.68862,40.40994 c -11.24179,-11.06408 -25.67848,-18.10664 -43.62023,-18.79056 v -17.9819 c 23.06796,0.46135 41.97599,9.30749 56.74462,23.46609 z m -43.62067,6.32959 c 10.67962,0.43146 19.15539,4.4581 26.09884,10.82699 L 129.26795,122.36053 Z M 125.4233,125.62806 H 86.939532 C 87.858402,104.26884 105.77282,86.354417 125.4233,85.435547 Z m 0,3.84466 v 38.48377 C 105.77282,167.03761 87.858402,149.1232 86.939532,129.47272 Z m 3.84465,0 h 40.19252 c -0.91888,19.65048 -18.83329,37.56489 -40.19252,38.48377 z m 29.0007,-35.748503 c -7.59576,-7.01693 -16.61234,-11.44385 -29.0007,-11.88043 v -17.93663 c 15.80583,0.68136 30.30917,7.32322 40.89908,17.7367 z M 125.4233,81.843787 C 104.06408,82.767357 84.270912,102.5601 83.347762,125.62806 H 65.365442 C 65.845162,91.880477 93.384462,64.341177 125.4233,63.861887 Z M 83.347762,129.47272 c 0.92315,21.35922 20.716318,41.15154 42.075538,42.07554 V 187.7347 C 93.384462,187.26309 66.815292,161.51156 65.411572,129.47272 Z m 45.920188,42.07554 c 23.06797,-0.924 42.86028,-20.71632 43.78428,-42.07554 h 16.14031 c -1.37852,30.3301 -27.88574,56.83775 -59.92459,58.21584 z M 125.4233,42.333497 v 17.93619 C 91.248542,60.750277 62.254252,89.744557 61.773662,125.62806 H 43.837902 C 44.787532,79.064947 80.568932,43.283127 125.4233,42.333497 Z M 43.837902,129.47272 h 17.9819 c 1.40758,34.17476 29.42917,61.3817 63.603928,61.85375 v 19.73207 C 80.568932,210.10806 44.787532,174.32709 43.837902,129.47272 Z m 85.430048,81.58582 v -19.77821 c 33.74759,-1.38365 62.13271,-29.76921 63.51679,-61.80804 h 19.77821 c -0.95091,44.8548 -36.73188,80.63577 -83.295,81.58625 z"
     id="path3340"
     style="fill:#4aaee8;fill-opacity:1;stroke-width:0.65800267" />
</svg>
